docs/images/markdown.svg

<svg height="315" viewBox="0 0 514 315" width="514" xmlns="http://www.w3.org/2000/svg"><path d="m123.381732 73.504h-50.397732v167.496l52.515999.000002v-93l50 60 47.627251-60v93l49.87275-.000002v-167.496h-49.872756l-47.627245 61.995998zm-83.383323-73.504h434.003182c22.081252 0 39.998409 17.9063026 39.998409 39.9948462v235.0103078c0 22.085164-17.907898 39.994846-39.998409 39.994846h-434.003182c-22.0812515 0-39.998409-17.906303-39.998409-39.994846v-235.0103078c0-22.0851645 17.9078977-39.9948462 39.998409-39.9948462zm320.001591 74.5h-.497395l-.000001 86h-48.002604l74 80.5 74.002557-80.994415h-49.979835v-85.505585zm0 0" fill-rule="evenodd"/></svg>

<?xml version="1.0" encoding="UTF-8" standalone="no"?>
<svg width="514px" height="315px" viewBox="0 0 514 315" version="1.1" xmlns="http://www.w3.org/2000/svg" xmlns:xlink="http://www.w3.org/1999/xlink" xmlns:sketch="http://www.bohemiancoding.com/sketch/ns">
    <title>logo</title>
    <description>Created with Sketch (http://www.bohemiancoding.com/sketch)</description>
    <defs></defs>
    <g id="Page 1" stroke="none" stroke-width="1" fill="none" fill-rule="evenodd">
        <path d="M123.381732,73.504 L72.984,73.504 L72.984,241 L125.499999,241.000002 L125.499999,148.000002 L175.499999,208.000002 L223.12725,148.000002 L223.12725,241.000002 L273,241 L273,73.504 L223.127244,73.504 L175.499999,135.499998 Z M39.998409,0 L474.001591,0 C496.082843,0 514,17.9063026 514,39.9948462 L514,275.005154 C514,297.090318 496.092102,315 474.001591,315 L39.998409,315 C17.9171575,315 0,297.093697 0,275.005154 L0,39.9948462 C0,17.9096817 17.9078977,0 39.998409,0 Z M360,74.5 L359.502605,74.5 L359.502604,160.5 L311.5,160.5 L385.5,241 L459.502557,160.005585 L409.522722,160.005585 L409.522722,74.5 Z M360,74.5" id="Rectangle 1" fill="#000000"></path>
    </g>
</svg>
